X:310
T:Sweet Biddy of Ballyvourney
R:Reel
O:Ireland
B:O'Neill's 1301
S:O'Neill's 1301
Z:Transcription:Trish O'Neil, arrangement, chords:Mike Long
M:C|
L:1/8
K:G
"G"G2BG Bdde|"C"fdge "D"fdcA|"G"G2BG Bdde|"D"fdcA AGAF|\
"G"G2BG Bdde|
"C"fdge "D"fdcA|"G"G2BG Bdde|"D"fdcA "G"AGG2|]\
"G"~g2dg gbag|"D"fdde fgaf|
"G"~g2dg "C"gbag|"D"fdcA "G"AGG2|\
"G"~g2dg ~g2de|"D"fgag fdef|defg abag|fdcA AGAF|]
